X:4
T:Brian O'Lynn's
T:Emon Acnuck
R:jig
D:Paddy Canny, 1959 (as "Banks of Loch Gowna")
B:O'Neill, Ryan's Mammoth
N:setting loosley transcribed from Paddy Canny
S:Clare FM
Z:psc -  http://www.cranfordpub.com
L:1/8
Q:300
M:6/8
K:Ador
B|cAd cAG|~E3 GAB|cAd cAG|EAA A2 B|
ced cAG|~E3 GAB|cde =fed|cAA A2:|
|:f|~g2 g ({a}g)ed|(c/B/A)B cde|a2 a ({b}a)ge|edc def|
gea ged|cAB cde|=fed cAG|EAA A2:|
